X: 0574
M: 2/4
L: 1/16
K: D
dcdA Bcde | gfed cBAG | FA df gfed | c2A2 A2Bc |\
dAeA fAgA | gfed dcBA | dfeg faeg | f2d2d2 :|
|: fg |\
agfe dfga | b2e2e2 ed | cAeA fAed | c2A2 A2Bc |\
dAeA fAgA | afbe dcBA | dfeg faeg | f2d2d2 :|

